shader_type canvas_item;

uniform sampler2D Tex : repeat_enable;
uniform float n_rows = 5.0;
uniform float y_offset = 0.0;

void fragment() {
	vec2 uv = UV;
	uv.y /= n_rows;
	uv.y += y_offset;
	COLOR.rgb += texture(Tex, uv).rgb;
}

